X:2
T:High Hills Of Larghey, The
M:4/4
L:1/8
S:L.Nugent #1 Trk 12
R:reel
Z:Ed Wosika
K:DMaj
(3ABc|: d2fe dB~AF| GABG FAEF| DFAc defd| gefd eB~BA|
    d2fe dB~AF| GABG FAEF| DFAc defa| gece d2:||
fg|: abag fdAF| GABG FAEF|1 DFAc defe| fdgf e2fg:||
    |2 DFAc defa| gece d2:|
